dist/assets/images/icons/tel.svg

<svg width="14" height="14" viewBox="0 0 14 14" fill="none" xmlns="http://www.w3.org/2000/svg">
<path d="M8.8963 9.39752L9.8763 8.41752C10.0083 8.28716 10.1753 8.19793 10.357 8.16065C10.5387 8.12337 10.7274 8.13965 10.9 8.20752L12.0944 8.68439C12.2689 8.75521 12.4185 8.8761 12.5244 9.03181C12.6303 9.18753 12.6877 9.3711 12.6894 9.55939V11.7469C12.6884 11.875 12.6615 12.0015 12.6103 12.119C12.559 12.2364 12.4846 12.3422 12.3914 12.4301C12.2982 12.518 12.1882 12.5861 12.068 12.6303C11.9478 12.6746 11.8198 12.694 11.6919 12.6875C3.32255 12.1669 1.6338 5.07939 1.31442 2.36689C1.29959 2.23369 1.31314 2.09886 1.35417 1.97127C1.39519 1.84367 1.46277 1.72621 1.55245 1.62661C1.64213 1.52702 1.75188 1.44753 1.87449 1.3934C1.99709 1.33926 2.12977 1.3117 2.2638 1.31252H4.37692C4.56549 1.31308 4.74957 1.37003 4.90551 1.47607C5.06144 1.5821 5.18208 1.73236 5.25192 1.90752L5.7288 3.10189C5.79891 3.27386 5.81679 3.46267 5.78022 3.64475C5.74365 3.82682 5.65425 3.99408 5.52317 4.12564L4.54317 5.10564C4.54317 5.10564 5.10755 8.92502 8.8963 9.39752Z" fill="#101112"/>
</svg>

<svg width="14" height="14" fill="none" xmlns="http://www.w3.org/2000/svg"><path d="M8.896 9.398l.98-.98a.958.958 0 011.024-.21l1.194.476a.954.954 0 01.595.875v2.188a.95.95 0 01-.997.94c-8.37-.52-10.058-7.608-10.378-10.32a.95.95 0 01.95-1.054h2.113a.945.945 0 01.875.595l.477 1.194a.945.945 0 01-.206 1.024l-.98.98s.565 3.819 4.353 4.292z" fill="#101112"/></svg>
